icons/Logos/xing-fill.svg

<svg viewBox="0 0 24 24" xmlns="http://www.w3.org/2000/svg"><path d="M20.4619 3.23047C20.6158 3.23047 20.7696 3.30739 20.8465 3.38432C20.9235 3.53816 20.9235 3.69201 20.8465 3.84585L14.7696 14.6151L18.6158 21.692C18.6927 21.8459 18.6927 21.9997 18.6158 22.1535C18.5388 22.2305 18.385 22.3074 18.2311 22.3074H15.4619C15.0773 22.3074 14.8465 21.9997 14.6927 21.7689L10.7696 14.6151C11.0004 14.3074 16.9235 3.76893 16.9235 3.76893C17.0773 3.46124 17.3081 3.23047 17.6927 3.23047H20.4619ZM8.92345 6.9997C9.30807 6.9997 9.53884 7.30739 9.69268 7.53816L11.6158 10.8459C11.4619 10.9997 8.61576 16.0766 8.61576 16.0766C8.46191 16.3074 8.23114 16.6151 7.84653 16.6151H5.15422C5.00038 16.6151 4.84653 16.5382 4.76961 16.4612C4.69268 16.3074 4.69268 16.1535 4.76961 15.9997L7.61576 10.8459L5.76961 7.61508C5.69268 7.46124 5.69268 7.30739 5.76961 7.15355C5.84653 7.07662 6.00038 6.9997 6.15422 6.9997H8.92345Z"/></svg>

<svg xmlns="http://www.w3.org/2000/svg" viewBox="0 0 24 24">
    <g>
        <path fill="none" d="M0 0h24v24H0z"/>
        <path d="M20.462 3.23c.153 0 .307.078.384.155a.49.49 0 0 1 0 .461l-6.077 10.77 3.846 7.076a.49.49 0 0 1 0 .462.588.588 0 0 1-.384.154h-2.77c-.384 0-.615-.308-.769-.539l-3.923-7.154C11 14.308 16.923 3.77 16.923 3.77c.154-.307.385-.538.77-.538h2.769zM8.923 7c.385 0 .615.308.77.538l1.922 3.308c-.153.154-3 5.23-3 5.23-.153.232-.384.54-.769.54H5.154a.588.588 0 0 1-.385-.154.49.49 0 0 1 0-.462l2.846-5.154-1.846-3.23a.49.49 0 0 1 0-.462A.588.588 0 0 1 6.154 7h2.77z"/>
    </g>
</svg>
